X: 2
T: Memories Of Father Angus MacDonnell
R: barndance
M: 4/4
L: 1/8
K: Gmaj
|: (3DEF |G>G G<A G>F E<D | B<d d<B d2 (3Bcd | e2 d<B c>A B<G | E4 E2 (3DEF |
(3GGG G<A G>F E<D | B<d d<B d2 (3dge | d>B G<B A>G A<B | G4 G2 :|
|: (3Bcd |e>e e<f g>f e>d | B<d d<B d2 (3Bcd | e2 d<B c>A B<G | E4 E2 D>F |
G2 (3GGG G>F E<D | B<d d<B d2 g>e | d<B G<B A>G A<B | G2 (3GGG G2 :|
